findly-builder/apps/searchassist/src/assets/icons/help_gray.svg

<svg width="14" height="14" viewBox="0 0 14 14" fill="none" xmlns="http://www.w3.org/2000/svg">
<path d="M4.73148 5.4982C4.73148 3.53683 6.67739 2.64353 8.1102 3.35254C9.01527 3.80041 9.56711 4.87365 9.38551 5.75226C9.25058 6.40508 8.96827 6.78693 8.39866 7.25267L8.17892 7.42696C7.62276 7.86327 7.46658 8.08942 7.46658 8.61331C7.46658 8.86721 7.26075 9.07303 7.00686 9.07303C6.75297 9.07303 6.54715 8.86721 6.54715 8.61331C6.54715 7.78868 6.82362 7.34496 7.49572 6.7961L7.71255 6.62429C8.20668 6.23575 8.39525 6.00093 8.48511 5.56616C8.58039 5.10518 8.23962 4.44243 7.70242 4.1766C6.83105 3.74541 5.65091 4.28717 5.65091 5.4982C5.65091 5.7521 5.44509 5.95792 5.1912 5.95792C4.9373 5.95792 4.73148 5.7521 4.73148 5.4982Z" fill="#9AA0A6"/>
<path d="M7.6047 10.3286C7.6047 10.638 7.35385 10.8889 7.04442 10.8889C6.73499 10.8889 6.48414 10.638 6.48414 10.3286C6.48414 10.0192 6.73499 9.76833 7.04442 9.76833C7.35385 9.76833 7.6047 10.0192 7.6047 10.3286Z" fill="#9AA0A6"/>
<path fill-rule="evenodd" clip-rule="evenodd" d="M7 0C3.13401 0 0 3.13401 0 7C0 10.866 3.13401 14 7 14C10.866 14 14 10.866 14 7C14 3.13401 10.866 0 7 0ZM7 1.03704C10.2933 1.03704 12.963 3.70675 12.963 7C12.963 10.2933 10.2933 12.963 7 12.963C3.70675 12.963 1.03704 10.2933 1.03704 7C1.03704 3.70675 3.70675 1.03704 7 1.03704Z" fill="#9AA0A6"/>
</svg>

<svg width="14" height="14" fill="none" xmlns="http://www.w3.org/2000/svg"><path d="M4.731 5.498c0-1.961 1.946-2.854 3.38-2.145.904.447 1.456 1.52 1.275 2.4-.135.652-.418 1.034-.987 1.5l-.22.174c-.556.436-.712.662-.712 1.186a.46.46 0 0 1-.92 0c0-.824.277-1.268.949-1.817l.217-.172c.494-.388.682-.623.772-1.058.095-.46-.245-1.124-.783-1.39-.87-.43-2.051.111-2.051 1.322a.46.46 0 1 1-.92 0Zm2.874 4.831a.56.56 0 1 1-1.12 0 .56.56 0 0 1 1.12 0Z" fill="#9AA0A6"/><path fill-rule="evenodd" clip-rule="evenodd" d="M7 0a7 7 0 1 0 0 14A7 7 0 0 0 7 0Zm0 1.037a5.963 5.963 0 1 1 0 11.926A5.963 5.963 0 0 1 7 1.037Z" fill="#9AA0A6"/></svg>
